components/Company/logos/logo-chargepoint.svg

<svg height="140" viewBox="0 0 400 140" width="400" xmlns="http://www.w3.org/2000/svg"><g fill="none" transform="translate(25 47)"><g transform="translate(0 1.842105)"><g fill="#ef7622"><path d="m49.5526316 34.0789474c-2.5789474 0-4.0526316 1.2894737-4.2368421 6.0789473 0 2.9473685-1.6578948 3.6842106-3.131579 3.6842106-2.5789473 0-3.5-2.5789474-3.5-8.8421053v-8.2894737c0-4.9736842.1842106-8.6578947 3.5-8.6578947 1.8421053 0 3.131579 1.2894737 3.131579 3.5 0 3.5 1.4736842 4.7894737 4.2368421 4.7894737 2.3947368 0 4.0526316-1.4736842 4.0526316-4.7894737s-2.0263158-10.131579-11.6052632-10.131579c-10.1315789 0-11.9736842 5.7105263-12.1578947 13.4473685h-25.42105267c-3.13157895 0-4.42105263 2.0263157-4.42105263 4.0526315 0 2.3947369 1.28947368 4.2368421 4.42105263 4.2368421h25.42105267v1.1052632c0 8.8421053 1.1052631 16.0263158 12.1578947 16.0263158 9.7631579 0 11.6052632-7.7368421 11.6052632-11.4210526.1842105-3.131579-1.4736843-4.7894737-4.0526316-4.7894737z"/><path d="m59.8684211 6.26315789c0-3.5 1.6578947-4.97368421 4.2368421-4.97368421 2.5789473 0 4.2368421 1.65789474 4.2368421 4.97368421v9.94736841h.1842105c1.2894737-3.1315789 4.6052631-4.7894737 7.7368421-4.7894737 4.6052632 0 7.9210526 2.9473685 7.9210526 9.2105263v24.6842106c0 3.5-1.6578947 4.9736842-4.2368421 4.9736842-2.5789473 0-4.2368421-1.6578948-4.2368421-4.9736842v-22.6578948c0-2.7631579-1.4736842-3.868421-3.1315789-3.868421-2.5789474 0-4.4210527 2.0263158-4.4210527 6.6315789v19.8947369c0 3.5-1.6578947 4.9736842-4.2368421 4.9736842-2.5789473 0-4.2368421-1.6578948-4.2368421-4.9736842v-39.05263161z"/><path d="m114.947368 41.4473684c0 2.3947369.552632 4.4210527.552632 5.5263158 0 2.2105263-1.473684 3.3157895-4.236842 3.3157895-2.210526 0-4.421053-1.1052632-4.421053-4.7894737h-.18421c-1.473684 3.3157895-4.605263 4.6052632-7.5526318 4.6052632-4.9736843 0-8.6578948-2.9473685-8.6578948-9.9473685 0-5.5263158 1.6578948-8.8421052 5.8947369-11.0526315l7.3684207-3.8684211c1.842106-.9210526 2.578948-2.3947368 2.578948-3.868421 0-2.0263158-1.105263-3.6842106-3.131579-3.6842106-2.947369 0-3.6842108 1.4736842-4.0526318 4.4210527-.1842106 1.6578947-1.8421053 2.5789473-4.0526316 2.5789473-1.8421053 0-4.4210527-.9210526-4.4210527-3.5 0-6.4473684 5.1578948-9.7631579 11.6052631-9.7631579 11.052632 0 12.342105 4.9736842 12.342105 10.8684211v19.1578947zm-8.473684-11.0526316-2.947368 2.0263158c-3.6842107 2.5789474-4.4210528 3.8684211-4.4210528 7 0 2.7631579 1.1052628 4.4210527 2.9473688 4.4210527 2.763157 0 4.421052-2.9473685 4.421052-6.8157895z"/><path d="m121.947368 16.0263158c0-2.7631579 1.105264-4.4210526 3.868421-4.4210526 2.763158 0 3.868422 1.8421052 3.868422 4.4210526v3.5h.18421c1.289474-4.6052632 3.31579-7.9210526 6.263158-7.9210526 2.210526 0 4.052632 1.6578947 4.052632 5.3421052 0 2.5789474-1.289474 4.9736842-5.157895 4.9736842-2.578948 0-4.789474 1.8421053-4.789474 4.9736842v18.2368421c0 3.5-1.657895 4.9736843-4.236842 4.9736843s-4.236842-1.6578948-4.236842-4.9736843v-29.1052631z"/><path d="m143.131579 25.4210526c0-7 1.842105-13.8157894 8.842105-13.8157894 3.131579 0 6.447369 1.8421052 7.736842 4.9736842h.184211c0-3.5 1.473684-4.9736842 4.052631-4.9736842 2.394737 0 4.052632 1.6578947 4.052632 4.9736842v35c0 8.4736842-4.236842 12.1578947-12.526316 12.1578947-6.263158 0-10.868421-2.0263158-10.868421-6.8157895 0-2.3947368 1.842105-3.6842105 4.236842-3.6842105 1.842106 0 3.131579 1.1052632 3.684211 2.3947368.736842 1.6578948 1.842105 2.2105264 2.947368 2.2105264 3.684211 0 4.421053-2.3947369 4.421053-7.3684211v-5.1578947h-.184211c-1.842105 3.5-3.868421 4.2368421-7.368421 4.2368421-7.552631 0-8.842105-6.8157895-8.842105-14.3684211v-9.7631579zm8.842105 7c0 8.1052632.736842 10.3157895 3.5 10.3157895 2.026316 0 4.052632-1.4736842 4.052632-9.0263158v-6.4473684c0-7.3684211-2.394737-9.0263158-4.052632-9.0263158-2.394737 0-3.68421 2.2105263-3.68421 8.1052632v6.0789473z"/><path d="m174.631579 27.0789474c0-9.3947369 1.289474-15.4736842 12.710526-15.4736842 8.657895 0 11.605263 4.7894736 11.605263 14.5526315 0 3.3157895-.368421 5.8947369-4.605263 5.8947369h-10.868421v3.6842105c0 4.4210526.368421 7.9210526 3.684211 7.9210526 1.842105 0 3.131579-1.8421052 3.131579-3.868421.18421-3.6842105 1.842105-4.4210526 4.052631-4.4210526 2.394737 0 4.236842.7368421 4.236842 4.0526315 0 6.631579-4.605263 10.6842106-11.421052 10.6842106-11.421053 0-12.710527-6.0789474-12.710527-15.4736843v-7.5526315zm15.842105-.9210527v-3.1315789c0-2.7631579-.921052-4.9736842-3.68421-4.9736842s-3.684211 2.2105263-3.684211 4.9736842v3.1315789z"/></g><path d="m205.026316 16.5789474c0-3.5 1.657895-4.9736842 4.236842-4.9736842s4.236842 1.6578947 4.236842 4.9736842h.184211c1.473684-3.131579 4.421052-4.9736842 7.368421-4.9736842 7.552631 0 8.842105 6.8157894 8.842105 14.368421v9.9473684c0 7.5526316-1.289474 14.3684211-8.842105 14.3684211-3.131579 0-5.894737-1.2894737-7.368421-4.2368421h-.184211v10.5c0 3.5-1.657895 4.9736842-4.236842 4.9736842s-4.236842-1.6578947-4.236842-4.9736842zm8.473684 18.2368421c0 5.3421052.921053 9.0263158 4.236842 9.0263158 3.131579 0 3.5-3.5 3.5-9.7631579v-5.1578948c0-8.1052631-.736842-10.3157894-3.5-10.3157894-2.026316 0-4.052631 1.4736842-4.052631 9.0263157v7.1842106z" fill="#7c98ab"/><path d="m235.236842 25.9736842c0-7.9210526 2.578947-14.368421 12.526316-14.368421 9.947368 0 12.526316 6.4473684 12.526316 14.368421v10.131579c0 7.9210526-2.578948 14.368421-12.526316 14.368421-9.947369 0-12.526316-6.4473684-12.526316-14.368421zm8.842105 9.3947369c0 6.8157894 1.105264 8.4736842 3.868421 8.4736842 2.763158 0 3.868421-1.6578948 3.868421-8.4736842v-8.8421053c0-6.631579-1.289473-8.2894737-3.868421-8.2894737-2.394736 0-3.868421 1.6578947-3.868421 8.2894737z" fill="#7c98ab"/><path d="m267.105263 16.5789474c0-3.5 1.657895-4.9736842 4.236842-4.9736842 2.578948 0 4.236842 1.6578947 4.236842 4.9736842v28.7368421c0 3.5-1.657894 4.9736842-4.236842 4.9736842-2.578947 0-4.236842-1.6578948-4.236842-4.9736842z" fill="#7c98ab"/><path d="m343.368421 25.0526316h-12.526316v-9.5789474c0-2.7631579-1.657894-4.7894737-4.052631-4.7894737s-4.052632 2.0263158-4.052632 4.7894737v9.3947369h-15.289474v-4.2368422c0-6.2631578-3.315789-9.2105263-7.921052-9.2105263-3.131579 0-6.447369 1.6578948-7.736842 4.7894737h-.184211c0-3.1315789-1.657895-4.7894737-4.236842-4.7894737s-4.236842 1.6578948-4.236842 4.9736842v28.7368421c0 3.5 1.657895 4.9736843 4.236842 4.9736843s4.236842-1.6578948 4.236842-4.9736843v-19.7105263c0-4.6052631 1.657895-6.6315789 4.421053-6.6315789 1.842105 0 3.131579 1.1052631 3.131579 3.868421v22.6578948c0 3.5 1.657894 4.9736842 4.236842 4.9736842 2.578947 0 4.236842-1.6578948 4.236842-4.9736842v-12.1578948h15.289474v12.5263158c0 2.7631579 1.657894 4.7894737 4.052631 4.7894737s4.052632-2.0263158 4.052632-4.7894737v-12.5263158h12.526316c2.947368 0 4.789473-1.6578947 4.789473-4.0526315-.18421-2.3947369-2.026316-4.0526316-4.973684-4.0526316z" fill="#7c98ab"/></g><g fill="#7c98ab"><path d="m271.342105.92105263c2.578948 0 4.789474 2.21052632 4.789474 4.78947369 0 2.57894736-2.210526 4.78947368-4.789474 4.78947368-2.578947 0-4.789473-2.21052632-4.789473-4.78947368 0-2.7631579 2.026315-4.78947369 4.789473-4.78947369z"/><path d="m339.131579 47.5263158c0-2.9473684 2.026316-5.1578947 4.421053-5.1578947 2.578947 0 4.421052 2.2105263 4.421052 4.7894736v.1842106c0 2.7631579-2.026316 4.9736842-4.421052 4.9736842-2.394737.1842105-4.421053-2.0263158-4.421053-4.7894737zm8.473684 0c0-2.5789474-1.657895-4.4210526-3.868421-4.4210526s-3.868421 2.0263157-3.868421 4.4210526v.1842105c0 2.3947369 1.657895 4.4210526 3.868421 4.4210526 2.210526-.1842105 3.868421-2.2105263 3.868421-4.6052631zm-5.710526-2.7631579h1.842105c1.105263 0 1.842105.5526316 1.842105 1.6578947 0 .7368421-.368421 1.2894737-1.105263 1.4736842l1.289474 2.0263158h-1.105263l-1.105263-1.8421052h-.921053v1.8421052h-.921053v-5.1578947zm1.842105 2.5789474c.736842 0 1.105263-.3684211 1.105263-.9210527 0-.5526315-.368421-.9210526-1.105263-.9210526h-.921053v1.6578947h.921053z"/></g></g></svg>

<?xml version="1.0" encoding="UTF-8"?>
<svg width="400px" height="140px" viewBox="0 0 400 140" version="1.1" xmlns="http://www.w3.org/2000/svg" xmlns:xlink="http://www.w3.org/1999/xlink">
    <title>Artboard</title>
    <g id="Artboard" stroke="none" stroke-width="1" fill="none" fill-rule="evenodd">
        <g id="charge" transform="translate(25.000000, 47.000000)" fill-rule="nonzero">
            <g id="Group">
                <g transform="translate(0.000000, 1.842105)">
                    <path d="M49.5526316,34.0789474 C46.9736842,34.0789474 45.5,35.3684211 45.3157895,40.1578947 C45.3157895,43.1052632 43.6578947,43.8421053 42.1842105,43.8421053 C39.6052632,43.8421053 38.6842105,41.2631579 38.6842105,35 L38.6842105,26.7105263 C38.6842105,21.7368421 38.8684211,18.0526316 42.1842105,18.0526316 C44.0263158,18.0526316 45.3157895,19.3421053 45.3157895,21.5526316 C45.3157895,25.0526316 46.7894737,26.3421053 49.5526316,26.3421053 C51.9473684,26.3421053 53.6052632,24.8684211 53.6052632,21.5526316 C53.6052632,18.2368421 51.5789474,11.4210526 42,11.4210526 C31.8684211,11.4210526 30.0263158,17.1315789 29.8421053,24.8684211 L4.42105263,24.8684211 C1.28947368,24.8684211 0,26.8947368 0,28.9210526 C0,31.3157895 1.28947368,33.1578947 4.42105263,33.1578947 L29.8421053,33.1578947 L29.8421053,34.2631579 C29.8421053,43.1052632 30.9473684,50.2894737 42,50.2894737 C51.7631579,50.2894737 53.6052632,42.5526316 53.6052632,38.8684211 C53.7894737,35.7368421 52.1315789,34.0789474 49.5526316,34.0789474 Z" id="Path" fill="#EF7622"></path>
                    <path d="M59.8684211,6.26315789 C59.8684211,2.76315789 61.5263158,1.28947368 64.1052632,1.28947368 C66.6842105,1.28947368 68.3421053,2.94736842 68.3421053,6.26315789 L68.3421053,16.2105263 L68.5263158,16.2105263 C69.8157895,13.0789474 73.1315789,11.4210526 76.2631579,11.4210526 C80.8684211,11.4210526 84.1842105,14.3684211 84.1842105,20.6315789 L84.1842105,45.3157895 C84.1842105,48.8157895 82.5263158,50.2894737 79.9473684,50.2894737 C77.3684211,50.2894737 75.7105263,48.6315789 75.7105263,45.3157895 L75.7105263,22.6578947 C75.7105263,19.8947368 74.2368421,18.7894737 72.5789474,18.7894737 C70,18.7894737 68.1578947,20.8157895 68.1578947,25.4210526 L68.1578947,45.3157895 C68.1578947,48.8157895 66.5,50.2894737 63.9210526,50.2894737 C61.3421053,50.2894737 59.6842105,48.6315789 59.6842105,45.3157895 L59.6842105,6.26315789 L59.8684211,6.26315789 Z" id="Path" fill="#EF7622"></path>
                    <path d="M114.947368,41.4473684 C114.947368,43.8421053 115.5,45.8684211 115.5,46.9736842 C115.5,49.1842105 114.026316,50.2894737 111.263158,50.2894737 C109.052632,50.2894737 106.842105,49.1842105 106.842105,45.5 L106.657895,45.5 C105.184211,48.8157895 102.052632,50.1052632 99.1052632,50.1052632 C94.1315789,50.1052632 90.4473684,47.1578947 90.4473684,40.1578947 C90.4473684,34.6315789 92.1052632,31.3157895 96.3421053,29.1052632 L103.710526,25.2368421 C105.552632,24.3157895 106.289474,22.8421053 106.289474,21.3684211 C106.289474,19.3421053 105.184211,17.6842105 103.157895,17.6842105 C100.210526,17.6842105 99.4736842,19.1578947 99.1052632,22.1052632 C98.9210526,23.7631579 97.2631579,24.6842105 95.0526316,24.6842105 C93.2105263,24.6842105 90.6315789,23.7631579 90.6315789,21.1842105 C90.6315789,14.7368421 95.7894737,11.4210526 102.236842,11.4210526 C113.289474,11.4210526 114.578947,16.3947368 114.578947,22.2894737 L114.578947,41.4473684 L114.947368,41.4473684 Z M106.473684,30.3947368 L103.526316,32.4210526 C99.8421053,35 99.1052632,36.2894737 99.1052632,39.4210526 C99.1052632,42.1842105 100.210526,43.8421053 102.052632,43.8421053 C104.815789,43.8421053 106.473684,40.8947368 106.473684,37.0263158 L106.473684,30.3947368 Z" id="Shape" fill="#EF7622"></path>
                    <path d="M121.947368,16.0263158 C121.947368,13.2631579 123.052632,11.6052632 125.815789,11.6052632 C128.578947,11.6052632 129.684211,13.4473684 129.684211,16.0263158 L129.684211,19.5263158 L129.868421,19.5263158 C131.157895,14.9210526 133.184211,11.6052632 136.131579,11.6052632 C138.342105,11.6052632 140.184211,13.2631579 140.184211,16.9473684 C140.184211,19.5263158 138.894737,21.9210526 135.026316,21.9210526 C132.447368,21.9210526 130.236842,23.7631579 130.236842,26.8947368 L130.236842,45.1315789 C130.236842,48.6315789 128.578947,50.1052632 126,50.1052632 C123.421053,50.1052632 121.763158,48.4473684 121.763158,45.1315789 L121.763158,16.0263158 L121.947368,16.0263158 Z" id="Path" fill="#EF7622"></path>
                    <path d="M143.131579,25.4210526 C143.131579,18.4210526 144.973684,11.6052632 151.973684,11.6052632 C155.105263,11.6052632 158.421053,13.4473684 159.710526,16.5789474 L159.894737,16.5789474 C159.894737,13.0789474 161.368421,11.6052632 163.947368,11.6052632 C166.342105,11.6052632 168,13.2631579 168,16.5789474 L168,51.5789474 C168,60.0526316 163.763158,63.7368421 155.473684,63.7368421 C149.210526,63.7368421 144.605263,61.7105263 144.605263,56.9210526 C144.605263,54.5263158 146.447368,53.2368421 148.842105,53.2368421 C150.684211,53.2368421 151.973684,54.3421053 152.526316,55.6315789 C153.263158,57.2894737 154.368421,57.8421053 155.473684,57.8421053 C159.157895,57.8421053 159.894737,55.4473684 159.894737,50.4736842 L159.894737,45.3157895 L159.710526,45.3157895 C157.868421,48.8157895 155.842105,49.5526316 152.342105,49.5526316 C144.789474,49.5526316 143.5,42.7368421 143.5,35.1842105 L143.5,25.4210526 L143.131579,25.4210526 Z M151.973684,32.4210526 C151.973684,40.5263158 152.710526,42.7368421 155.473684,42.7368421 C157.5,42.7368421 159.526316,41.2631579 159.526316,33.7105263 L159.526316,27.2631579 C159.526316,19.8947368 157.131579,18.2368421 155.473684,18.2368421 C153.078947,18.2368421 151.789474,20.4473684 151.789474,26.3421053 L151.789474,32.4210526 L151.973684,32.4210526 Z" id="Shape" fill="#EF7622"></path>
                    <path d="M174.631579,27.0789474 C174.631579,17.6842105 175.921053,11.6052632 187.342105,11.6052632 C196,11.6052632 198.947368,16.3947368 198.947368,26.1578947 C198.947368,29.4736842 198.578947,32.0526316 194.342105,32.0526316 L183.473684,32.0526316 L183.473684,35.7368421 C183.473684,40.1578947 183.842105,43.6578947 187.157895,43.6578947 C189,43.6578947 190.289474,41.8157895 190.289474,39.7894737 C190.473684,36.1052632 192.131579,35.3684211 194.342105,35.3684211 C196.736842,35.3684211 198.578947,36.1052632 198.578947,39.4210526 C198.578947,46.0526316 193.973684,50.1052632 187.157895,50.1052632 C175.736842,50.1052632 174.447368,44.0263158 174.447368,34.6315789 L174.447368,27.0789474 L174.631579,27.0789474 Z M190.473684,26.1578947 L190.473684,23.0263158 C190.473684,20.2631579 189.552632,18.0526316 186.789474,18.0526316 C184.026316,18.0526316 183.105263,20.2631579 183.105263,23.0263158 L183.105263,26.1578947 L190.473684,26.1578947 Z" id="Shape" fill="#EF7622"></path>
                    <path d="M205.026316,16.5789474 C205.026316,13.0789474 206.684211,11.6052632 209.263158,11.6052632 C211.842105,11.6052632 213.5,13.2631579 213.5,16.5789474 L213.684211,16.5789474 C215.157895,13.4473684 218.105263,11.6052632 221.052632,11.6052632 C228.605263,11.6052632 229.894737,18.4210526 229.894737,25.9736842 L229.894737,35.9210526 C229.894737,43.4736842 228.605263,50.2894737 221.052632,50.2894737 C217.921053,50.2894737 215.157895,49 213.684211,46.0526316 L213.5,46.0526316 L213.5,56.5526316 C213.5,60.0526316 211.842105,61.5263158 209.263158,61.5263158 C206.684211,61.5263158 205.026316,59.8684211 205.026316,56.5526316 L205.026316,16.5789474 Z M213.5,34.8157895 C213.5,40.1578947 214.421053,43.8421053 217.736842,43.8421053 C220.868421,43.8421053 221.236842,40.3421053 221.236842,34.0789474 L221.236842,28.9210526 C221.236842,20.8157895 220.5,18.6052632 217.736842,18.6052632 C215.710526,18.6052632 213.684211,20.0789474 213.684211,27.6315789 L213.684211,34.8157895 L213.5,34.8157895 Z" id="Shape" fill="#7C98AB"></path>
                    <path d="M235.236842,25.9736842 C235.236842,18.0526316 237.815789,11.6052632 247.763158,11.6052632 C257.710526,11.6052632 260.289474,18.0526316 260.289474,25.9736842 L260.289474,36.1052632 C260.289474,44.0263158 257.710526,50.4736842 247.763158,50.4736842 C237.815789,50.4736842 235.236842,44.0263158 235.236842,36.1052632 L235.236842,25.9736842 Z M244.078947,35.3684211 C244.078947,42.1842105 245.184211,43.8421053 247.947368,43.8421053 C250.710526,43.8421053 251.815789,42.1842105 251.815789,35.3684211 L251.815789,26.5263158 C251.815789,19.8947368 250.526316,18.2368421 247.947368,18.2368421 C245.552632,18.2368421 244.078947,19.8947368 244.078947,26.5263158 L244.078947,35.3684211 Z" id="Shape" fill="#7C98AB"></path>
                    <path d="M267.105263,16.5789474 C267.105263,13.0789474 268.763158,11.6052632 271.342105,11.6052632 C273.921053,11.6052632 275.578947,13.2631579 275.578947,16.5789474 L275.578947,45.3157895 C275.578947,48.8157895 273.921053,50.2894737 271.342105,50.2894737 C268.763158,50.2894737 267.105263,48.6315789 267.105263,45.3157895 L267.105263,16.5789474 Z" id="Path" fill="#7C98AB"></path>
                    <path d="M343.368421,25.0526316 L330.842105,25.0526316 L330.842105,15.4736842 C330.842105,12.7105263 329.184211,10.6842105 326.789474,10.6842105 C324.394737,10.6842105 322.736842,12.7105263 322.736842,15.4736842 L322.736842,24.8684211 L307.447368,24.8684211 L307.447368,20.6315789 C307.447368,14.3684211 304.131579,11.4210526 299.526316,11.4210526 C296.394737,11.4210526 293.078947,13.0789474 291.789474,16.2105263 L291.605263,16.2105263 C291.605263,13.0789474 289.947368,11.4210526 287.368421,11.4210526 C284.789474,11.4210526 283.131579,13.0789474 283.131579,16.3947368 L283.131579,45.1315789 C283.131579,48.6315789 284.789474,50.1052632 287.368421,50.1052632 C289.947368,50.1052632 291.605263,48.4473684 291.605263,45.1315789 L291.605263,25.4210526 C291.605263,20.8157895 293.263158,18.7894737 296.026316,18.7894737 C297.868421,18.7894737 299.157895,19.8947368 299.157895,22.6578947 L299.157895,45.3157895 C299.157895,48.8157895 300.815789,50.2894737 303.394737,50.2894737 C305.973684,50.2894737 307.631579,48.6315789 307.631579,45.3157895 L307.631579,33.1578947 L322.921053,33.1578947 L322.921053,45.6842105 C322.921053,48.4473684 324.578947,50.4736842 326.973684,50.4736842 C329.368421,50.4736842 331.026316,48.4473684 331.026316,45.6842105 L331.026316,33.1578947 L343.552632,33.1578947 C346.5,33.1578947 348.342105,31.5 348.342105,29.1052632 C348.157895,26.7105263 346.315789,25.0526316 343.368421,25.0526316 Z" id="Path" fill="#7C98AB"></path>
                </g>
                <path d="M271.342105,0.921052632 C273.921053,0.921052632 276.131579,3.13157895 276.131579,5.71052632 C276.131579,8.28947368 273.921053,10.5 271.342105,10.5 C268.763158,10.5 266.552632,8.28947368 266.552632,5.71052632 C266.552632,2.94736842 268.578947,0.921052632 271.342105,0.921052632 Z" id="Path" fill="#7C98AB"></path>
            </g>
            <path d="M339.131579,47.5263158 L339.131579,47.5263158 C339.131579,44.5789474 341.157895,42.3684211 343.552632,42.3684211 C346.131579,42.3684211 347.973684,44.5789474 347.973684,47.1578947 L347.973684,47.3421053 C347.973684,50.1052632 345.947368,52.3157895 343.552632,52.3157895 C341.157895,52.5 339.131579,50.2894737 339.131579,47.5263158 Z M347.605263,47.5263158 L347.605263,47.5263158 C347.605263,44.9473684 345.947368,43.1052632 343.736842,43.1052632 C341.526316,43.1052632 339.868421,45.1315789 339.868421,47.5263158 L339.868421,47.7105263 C339.868421,50.1052632 341.526316,52.1315789 343.736842,52.1315789 C345.947368,51.9473684 347.605263,49.9210526 347.605263,47.5263158 Z M341.894737,44.7631579 L343.736842,44.7631579 C344.842105,44.7631579 345.578947,45.3157895 345.578947,46.4210526 C345.578947,47.1578947 345.210526,47.7105263 344.473684,47.8947368 L345.763158,49.9210526 L344.657895,49.9210526 L343.552632,48.0789474 L342.631579,48.0789474 L342.631579,49.9210526 L341.710526,49.9210526 L341.710526,44.7631579 L341.894737,44.7631579 Z M343.736842,47.3421053 C344.473684,47.3421053 344.842105,46.9736842 344.842105,46.4210526 C344.842105,45.8684211 344.473684,45.5 343.736842,45.5 L342.815789,45.5 L342.815789,47.1578947 L343.736842,47.1578947 L343.736842,47.3421053 Z" id="Shape" fill="#7C98AB"></path>
        </g>
    </g>
</svg>
